!!!COM: Fux, Johann Joseph
!!!OMD: Gradus ad Parnassum Exercise
!!!YEC: CC0 1.0 Universal (Public Domain). Mark Gotham and FourScoreAndMore.org waive all rights to this document.
**kern	**kern
*part2	*part1
*staff2	*staff1
*I"2	*I"1
*I'Pno	*I'Pno
!!LO:LB:g=z
*clefGv2	*clefG2
*k[]	*k[]
!!LO:TX:omd:t=
*M2/2	*M2/2
=81	=81
!	!LO:TX:a:t=Fig. 21; Species&colon; 1; Modal final&colon; g; Cantus firmus&colon; Upper
1G	1G
=82	=82
1A	1c
=83	=83
1G	1B
=84	=84
1E	1G
=85	=85
1E	1c
=86	=86
1C	1e
=87	=87
1G	1d
=88	=88
1B	1g
=89	=89
1c	1e
=90	=90
1A	1c
=91	=91
1F#X	1d
=92	=92
1G	1B
=93	=93
1F#X	1A
=94	=94
1G	1G
==	==
*-	*-
!!!software: music21 v.9.7.1
!!!software: music21 v.9.7.1
!!!software: MuseScore 3.4.2
!!!RDF**kern: > = above
!!!RDF**kern: < = below
